packages/icons/svg/Outline/settings.svg

<svg width="24" height="24" viewBox="0 0 24 24" fill="none" xmlns="http://www.w3.org/2000/svg">
<g id="Icon/Outline/settings">
<path id="Mask" fill-rule="evenodd" clip-rule="evenodd" d="M4.40275 11.6221C5.51875 12.0051 6.40775 12.9391 6.77975 14.1231L6.81975 14.2431C7.24575 15.4991 7.07275 16.8511 6.35875 17.8651C6.22875 18.0491 6.25775 18.2691 6.39475 18.3731L8.46675 19.9471C8.53975 20.0021 8.61075 20.0021 8.65475 19.9971C8.70475 19.9891 8.77775 19.9621 8.83675 19.8781L9.06775 19.5501C9.75675 18.5731 10.8667 17.9701 12.0387 17.9361C13.3547 17.9091 14.5367 18.5121 15.2727 19.5751L15.3907 19.7461C15.4497 19.8301 15.5217 19.8581 15.5727 19.8661C15.6167 19.8751 15.6887 19.8721 15.7607 19.8161L17.8217 18.2611C17.9657 18.1531 17.9977 17.9221 17.8907 17.7671L17.6307 17.3921C16.9607 16.4241 16.7617 15.1681 17.0987 14.0331C17.4647 12.7971 18.3957 11.8191 19.5907 11.4191L19.7917 11.3511C19.9527 11.2981 20.0397 11.0981 19.9827 10.9141L19.1957 8.39312C19.1587 8.27512 19.0827 8.22212 19.0407 8.20012C18.9807 8.16912 18.9157 8.16412 18.8537 8.18512L18.5137 8.29812C17.3507 8.68512 16.0677 8.47512 15.0827 7.73412L14.9747 7.65312C14.0387 6.94912 13.4817 5.81412 13.4857 4.61812L13.4877 4.33812C13.4877 4.20512 13.4247 4.12212 13.3867 4.08412C13.3507 4.04712 13.2897 4.00312 13.2037 4.00312L10.6567 4.00012C10.5007 4.00012 10.3737 4.14912 10.3727 4.33312L10.3717 4.57512C10.3667 5.79012 9.79775 6.94612 8.84975 7.66912L8.72075 7.76712C7.67775 8.56012 6.31775 8.78412 5.08575 8.36412C5.03875 8.34812 4.99475 8.35112 4.95275 8.37312C4.92075 8.38912 4.86275 8.43012 4.83475 8.52112L4.01775 11.1171C3.95875 11.3061 4.05575 11.5031 4.23875 11.5661L4.40275 11.6221ZM8.61375 22.0001C8.12775 22.0001 7.65575 21.8421 7.25775 21.5391L5.18575 19.9661C4.19575 19.2161 3.97675 17.7731 4.69675 16.7501C5.07075 16.2201 5.14775 15.5391 4.92775 14.8931L4.87275 14.7251C4.68975 14.1431 4.27175 13.6911 3.75475 13.5141H3.75375L3.59075 13.4571C2.37275 13.0401 1.72275 11.7491 2.10975 10.5171L2.92575 7.92212C3.11075 7.33512 3.50975 6.86112 4.04975 6.58812C4.57775 6.32212 5.17475 6.28112 5.73275 6.47212C6.33175 6.67612 6.99675 6.56512 7.50975 6.17512L7.63875 6.07712C8.09475 5.72912 8.36975 5.16412 8.37175 4.56712L8.37275 4.32612C8.37775 3.04212 9.40275 2.00012 10.6557 2.00012H10.6597L13.2067 2.00312C13.8087 2.00412 14.3767 2.24212 14.8047 2.67312C15.2477 3.11812 15.4897 3.71312 15.4877 4.34812L15.4857 4.62712C15.4837 5.19312 15.7427 5.72812 16.1797 6.05612L16.2867 6.13712C16.7457 6.48212 17.3437 6.58112 17.8807 6.40112L18.2197 6.28812C18.7967 6.09612 19.4107 6.14312 19.9517 6.42012C20.5067 6.70412 20.9167 7.19312 21.1047 7.79812L21.8917 10.3191C22.2717 11.5371 21.6137 12.8511 20.4267 13.2481L20.2257 13.3151C19.6497 13.5091 19.1967 13.9891 19.0157 14.6011C18.8497 15.1621 18.9457 15.7791 19.2747 16.2531L19.5347 16.6281C20.2487 17.6601 20.0207 19.1081 19.0267 19.8571L16.9657 21.4131C16.4707 21.7871 15.8637 21.9381 15.2547 21.8411C14.6407 21.7421 14.1047 21.4021 13.7457 20.8841L13.6277 20.7121C13.2777 20.2081 12.7177 19.9021 12.1307 19.9351C11.5427 19.9511 11.0347 20.2301 10.7027 20.7021L10.4717 21.0301C10.1097 21.5431 9.57275 21.8781 8.96175 21.9741C8.84475 21.9921 8.72875 22.0001 8.61375 22.0001ZM11.9999 10.5C11.1729 10.5 10.4999 11.173 10.4999 12C10.4999 12.827 11.1729 13.5 11.9999 13.5C12.8269 13.5 13.4999 12.827 13.4999 12C13.4999 11.173 12.8269 10.5 11.9999 10.5ZM11.9999 15.5C10.0699 15.5 8.49995 13.93 8.49995 12C8.49995 10.07 10.0699 8.50002 11.9999 8.50002C13.9299 8.50002 15.4999 10.07 15.4999 12C15.4999 13.93 13.9299 15.5 11.9999 15.5Z" fill="#000000"/>
</g>
</svg>

<svg fill="none" height="24" viewBox="0 0 24 24" width="24" xmlns="http://www.w3.org/2000/svg"><path clip-rule="evenodd" d="m4.4027 11.6223c1.116.383 2.005 1.317 2.377 2.501l.04.12c.426 1.256.253 2.608-.461 3.622-.13.184-.101.404.036.508l2.072 1.574c.073.055.144.055.188.05.05-.008.123-.035.182-.119l.231-.328c.689-.977 1.799-1.58 2.971-1.614 1.316-.027 2.498.576 3.234 1.639l.118.171c.059.084.131.112.182.12.044.009.116.006.188-.05l2.061-1.555c.144-.108.176-.339.069-.494l-.26-.375c-.67-.968-.869-2.224-.532-3.359.366-1.236 1.297-2.214 2.492-2.614l.201-.068c.161-.053.248-.253.191-.437l-.787-2.52099c-.037-.118-.113-.171-.155-.193-.06-.031-.125-.036-.187-.015l-.34.113c-1.163.387-2.446.177-3.431-.564l-.108-.081c-.936-.704-1.493-1.839-1.489-3.035l.002-.28c0-.133-.063-.216-.101-.254-.036-.037-.097-.081-.183-.081l-2.547-.003c-.156 0-.283.149-.284.333l-.001.242c-.005 1.215-.574 2.371-1.522 3.094l-.129.098c-1.043.793-2.403 1.017-3.635.597-.047-.016-.091-.013-.133.009-.032.016-.09.057-.118.148l-.817 2.59599c-.059.189.038.386.221.449zm4.21105 10.3779c-.486 0-.958-.158-1.356-.461l-2.072-1.573c-.99-.75-1.209-2.193-.489-3.216.374-.53.451-1.211.231-1.857l-.055-.168c-.183-.582-.601-1.034-1.118-1.211h-.001l-.163-.057c-1.218-.417-1.868-1.708-1.481-2.94l.816-2.59496c.185-.587.584-1.061 1.124-1.334.528-.266 1.125-.307 1.683-.116.599.204 1.264.093 1.777-.297l.129-.098c.456-.348.731-.913.733-1.51l.001-.241c.005-1.284 1.03-2.326 2.28295-2.326h.004l2.547.003c.602.001 1.17.239 1.598.67.443.445.685 1.04.683 1.675l-.002.279c-.002.566.257 1.101.694 1.429l.107.081c.459.345 1.057.444 1.594.264l.339-.113c.577-.192 1.191-.145 1.732.132.555.284.965.773 1.153 1.378l.787 2.52096c.38 1.218-.278 2.532-1.465 2.929l-.201.067c-.576.194-1.029.674-1.21 1.286-.166.561-.07 1.178.259 1.652l.26.375c.714 1.032.486 2.48-.508 3.229l-2.061 1.556c-.495.374-1.102.525-1.711.428-.614-.099-1.15-.439-1.509-.957l-.118-.172c-.35-.504-.91-.81-1.497-.777-.588.016-1.096.295-1.428.767l-.231.328c-.362.513-.89895.848-1.50995.944-.117.018-.233.026-.348.026zm3.38615-11.5001c-.827 0-1.5.673-1.5 1.5s.673 1.5 1.5 1.5 1.5-.673 1.5-1.5-.673-1.5-1.5-1.5zm0 5.0001c-1.93 0-3.50002-1.57-3.50002-3.5s1.57002-3.49999 3.50002-3.49999 3.5 1.56999 3.5 3.49999-1.57 3.5-3.5 3.5z" fill="#6b7280" fill-rule="evenodd"/></svg>
